src/lib/packages/icons/src/assets/line/dislike-tag.svg

<svg width="24" height="24" viewBox="0 0 24 24" fill="none" xmlns="http://www.w3.org/2000/svg">
<path d="M17.667 1.25H6.33301C3.70001 1.25 2.25 2.70001 2.25 5.33301V15.333C2.25 17.966 3.70001 19.416 6.33301 19.416H7.83301C8.12001 19.416 8.39502 19.553 8.56702 19.783L10.066 21.783C10.527 22.397 11.231 22.75 12 22.75C12.769 22.75 13.473 22.3971 13.933 21.7841L15.433 19.784C15.606 19.554 15.88 19.416 16.167 19.416H17.667C20.3 19.416 21.75 17.966 21.75 15.333V5.33301C21.75 2.70001 20.3 1.25 17.667 1.25ZM20.25 15.333C20.25 17.144 19.478 17.916 17.667 17.916H16.167C15.411 17.916 14.688 18.277 14.233 18.883L12.7321 20.8831C12.3841 21.3491 11.616 21.3491 11.266 20.8831L9.76599 18.883C9.31199 18.278 8.58803 17.917 7.83203 17.917H6.33203C4.52103 17.917 3.74902 17.145 3.74902 15.334V5.33398C3.74902 3.52298 4.52103 2.75098 6.33203 2.75098H17.666C19.477 2.75098 20.249 3.52298 20.249 5.33398V15.333H20.25ZM15.958 6H9.93896C8.46096 6 8.00198 6.76697 7.72498 7.59497L6.66895 10.762C6.38595 11.614 6.45702 12.398 6.86902 12.97C7.15302 13.364 7.73303 13.833 8.88403 13.833H10.1949V14.791C10.1949 15.573 10.584 16.299 11.234 16.732C11.5 16.909 11.804 17 12.113 17C12.277 17 12.4421 16.974 12.6021 16.922C13.0661 16.773 13.43 16.425 13.611 15.94L14.6541 12.777H15.958C16.809 12.777 17.5 12.086 17.5 11.235V7.53998C17.5 6.69098 16.809 6 15.958 6ZM13.399 11.793L12.187 15.471L12.066 15.485C11.834 15.33 11.6949 15.071 11.6949 14.792V13.084C11.6949 12.67 11.3589 12.334 10.9449 12.334H8.88403C8.48203 12.334 8.19706 12.249 8.08606 12.093C7.96906 11.93 7.97102 11.602 8.09302 11.237L9.14795 8.07001C9.30995 7.58701 9.33797 7.5 9.93896 7.5L13.75 7.526V11.38C13.589 11.47 13.459 11.61 13.399 11.793ZM16 11.236L15.25 11.253V7.53601L16 7.54102V11.236Z" fill="currentColor"/>
</svg>

<svg xmlns="http://www.w3.org/2000/svg" width="24" height="24" fill="none"><path fill="currentColor" d="M17.667 1.25H6.333C3.7 1.25 2.25 2.7 2.25 5.333v10c0 2.633 1.45 4.083 4.083 4.083h1.5c.287 0 .562.137.734.367l1.499 2A2.398 2.398 0 0 0 12 22.75c.769 0 1.473-.353 1.933-.966l1.5-2a.924.924 0 0 1 .734-.368h1.5c2.633 0 4.083-1.45 4.083-4.083v-10c0-2.633-1.45-4.083-4.083-4.083Zm2.583 14.083c0 1.811-.772 2.583-2.583 2.583h-1.5a2.43 2.43 0 0 0-1.934.967l-1.5 2c-.349.466-1.117.466-1.467 0l-1.5-2a2.43 2.43 0 0 0-1.934-.966h-1.5c-1.811 0-2.583-.772-2.583-2.583v-10c0-1.811.772-2.583 2.583-2.583h11.334c1.811 0 2.583.772 2.583 2.583v9.999h.001ZM15.958 6H9.939c-1.478 0-1.937.767-2.214 1.595l-1.056 3.167c-.283.852-.212 1.636.2 2.208.284.394.864.863 2.015.863h1.31v.958c0 .782.39 1.508 1.04 1.941a1.582 1.582 0 0 0 1.368.19 1.59 1.59 0 0 0 1.009-.982l1.043-3.163h1.304c.851 0 1.542-.691 1.542-1.542V7.54c0-.849-.691-1.54-1.542-1.54Zm-2.559 5.793-1.212 3.678-.121.014a.832.832 0 0 1-.371-.693v-1.708a.75.75 0 0 0-.75-.75H8.884c-.402 0-.687-.085-.798-.241-.117-.163-.115-.491.007-.856L9.148 8.07c.162-.483.19-.57.791-.57l3.811.026v3.854a.74.74 0 0 0-.351.413ZM16 11.236l-.75.017V7.536l.75.005v3.695Z"/></svg>
